X:3332
T:Connaught Man's Rambles
R:Jig
M:6/8
L:1/8
K:D
EDE (B2d) | ~E3 AFD | EDE B2 (c | d)cB AFD |
EDE (B2d) | ~E3 AFD | GAB FGA | dAG FED :|
Bee fee | aee fed | Bee fee | gag  fed |
Bee fee | aee fef | gec d2 A | BAG FED |
Bee fee | aee fed | Bee fee | gag def |
g3 gfe | def  g2 (e | f)ec d2 (A | B)AG FED | E6 |


